X: 32210
T: Phil's Favourite
R: reel
M: 4/4
K: Gmajor
GA|:BG (3GGG Bded|B2Ac BAGE|DEGA BG (3Bcd|edBG A2GA|
BG (3GGG Bded|B2Ac BAGE|DEGA BG (3Bcd|1 edBA G2GA:|2 dBAB G2ge||
|:dega bg (3ggg|(3efg dc BGGe|dega bgag|agab ageg|
dega bg (3ggg|(3efg dc BAGE|DEGA BGBe|1 dBAB G2ge:|2 dBAB G3A||

